X:1
T:Untitled in 4/4. SenH.120
T:Untitled in 4/4. SenH.120
T:in Hand C
C:in Hand C
L:1/8
Q:1/4=100
M:4/4
K:C
V:1 treble 
V:1
 ef | g2 g2 a2 b2 | c'2 (ba) g2 (c'b) | a2 g2 f2 e2 | dcde d2 ef | g2 g2 a2 b2 | %6
 c'2 (ba) g2 (c'b) | agfe d3 c |{B} c6 || (ef) | g2 (de) f2 (ed) | (cd) e2 A2 (fg) | agfa gfef | %13
 d6 (Bc) | dcBA G2 g2 | d2 e2 B3 c | dcde d2 g2 | d2 e2 B3 c | dcde d2 ef | g2 g2 a2 b2 | %20
 c'2 (ba) g2 (c'b) | (ag)(fe) d3 c |{B} c6 |] %23

